X: 20314
Q: "Slow with expression."
M: C
L: 1/16
K: A
|:\
E6 (FA) (A3Bc2).d2 | (c4 B2A2) F4 (c3B) |\
E6 FA (A4 B2).c2 | (d2c2)(B2A2) {G}F4 (Hf3e) |\
e6 (ce d2c2B2).A2 | (A6 B2) c4 :|
|: c3d |\
e4 E4 E6 c2 | (B3cB2)(AG) F4 (E3F) |\
(d2def2).d2 (c2cde2).c2 | (d2c2B2).A2 {G}F4 Hf4 |\
(e3fe2)(ce) (d2c2B2).A2 | (A6 B2) c4 :|


